frontend/images/icons/senators.svg

<?xml version="1.0" encoding="UTF-8" standalone="no"?>
<svg
   viewBox="0 0 12.7 12.7"
   version="1.1"
   id="svg180"
   sodipodi:docname="senators.svg"
   inkscape:version="1.2.2 (732a01da63, 2022-12-09)"
   xml:space="preserve"
   xmlns:inkscape="http://www.inkscape.org/namespaces/inkscape"
   xmlns:sodipodi="http://sodipodi.sourceforge.net/DTD/sodipodi-0.dtd"
   xmlns:xlink="http://www.w3.org/1999/xlink"
   xmlns="http://www.w3.org/2000/svg"
   xmlns:svg="http://www.w3.org/2000/svg"><sodipodi:namedview
     id="namedview182"
     pagecolor="#ffffff"
     bordercolor="#000000"
     borderopacity="0.25"
     inkscape:showpageshadow="2"
     inkscape:pageopacity="0.0"
     inkscape:pagecheckerboard="0"
     inkscape:deskcolor="#d1d1d1"
     showgrid="false"
     inkscape:zoom="45.254834"
     inkscape:cx="3.8559417"
     inkscape:cy="9.1260969"
     inkscape:window-width="1920"
     inkscape:window-height="1009"
     inkscape:window-x="1912"
     inkscape:window-y="-4"
     inkscape:window-maximized="1"
     inkscape:current-layer="svg180" /><defs
     id="defs166"><linearGradient
       inkscape:collect="always"
       id="linearGradient10664"><stop
         style="stop-color:#ffffff;stop-opacity:1;"
         offset="0"
         id="stop10660" /><stop
         style="stop-color:#d5b8d4;stop-opacity:1;"
         offset="1"
         id="stop10662" /></linearGradient><linearGradient
       id="b"><stop
         offset="0"
         stop-color="#f8b395"
         stop-opacity="1"
         id="stop132" /><stop
         offset="1"
         stop-color="#da6533"
         stop-opacity="1"
         id="stop134" /></linearGradient><linearGradient
       id="c"><stop
         offset=".26"
         stop-color="#724830"
         stop-opacity="1"
         id="stop137" /><stop
         offset="1"
         stop-color="#c97e5f"
         stop-opacity="0"
         id="stop139" /></linearGradient><linearGradient
       id="a"><stop
         offset="0"
         stop-color="#000"
         stop-opacity=".15"
         id="stop142" /><stop
         offset="1"
         stop-color="#000"
         stop-opacity=".05"
         id="stop144" /></linearGradient><linearGradient
       id="linearGradient149"><stop
         offset="0"
         stop-color="#ffc6f9"
         stop-opacity="1"
         id="stop147" /></linearGradient><linearGradient
       xlink:href="#a"
       x1="8.78"
       y1="10.4"
       x2="10.09"
       y2="5.32"
       gradientUnits="userSpaceOnUse"
       gradientTransform="translate(.5 .44) scale(.90646)"
       id="linearGradient151" /><filter
       x="0"
       y="0"
       width="1"
       height="1"
       color-interpolation-filters="sRGB"
       id="filter155"><feGaussianBlur
         stdDeviation="0"
         id="feGaussianBlur153" /></filter><filter
       x="0"
       y="0"
       width="1.001"
       height="1.001"
       color-interpolation-filters="sRGB"
       id="filter159"><feGaussianBlur
         stdDeviation=".001"
         id="feGaussianBlur157" /></filter><filter
       id="d"
       x="-0.11703828"
       y="-0.10034612"
       width="1.2340766"
       height="1.2006922"
       color-interpolation-filters="sRGB"><feGaussianBlur
         stdDeviation=".469"
         id="feGaussianBlur161" /></filter><radialGradient
       xlink:href="#b"
       id="e"
       cx="7.101"
       cy="6.4"
       fx="7.101"
       fy="6.4"
       r="5.039"
       gradientTransform="matrix(1.88959 -.52193 .3125 1.13769 -7.878 2.738)"
       gradientUnits="userSpaceOnUse" /><radialGradient
       xlink:href="#c"
       id="f"
       cx="6.314"
       cy="8.444"
       fx="6.314"
       fy="8.444"
       r="1.949"
       gradientTransform="matrix(2.15476 .01783 -.00693 .95302 -7.109 -4.929)"
       gradientUnits="userSpaceOnUse" /><radialGradient
       inkscape:collect="always"
       xlink:href="#linearGradient10664"
       id="radialGradient10666"
       cx="6.3894854"
       cy="6.3594158"
       fx="6.3894854"
       fy="6.3594158"
       r="4.1729641"
       gradientTransform="matrix(1.0856744,0,0,1.0736406,-0.54741525,-0.46831139)"
       gradientUnits="userSpaceOnUse" /><filter
       inkscape:collect="always"
       style="color-interpolation-filters:sRGB"
       id="filter10668"
       x="-0.1071125"
       y="-0.10890232"
       width="1.214225"
       height="1.2178046"><feGaussianBlur
         inkscape:collect="always"
         stdDeviation="0.43263969"
         id="feGaussianBlur10670" /></filter></defs><rect
     style="fill:#000000;fill-opacity:1;fill-rule:evenodd;stroke:none;stroke-width:0.91871;stroke-linecap:round;stroke-linejoin:round;stroke-dasharray:none;stroke-opacity:1;filter:url(#filter10668)"
     id="rect1471-2"
     width="9.6938753"
     height="9.5345554"
     x="1.5434141"
     y="1.5966833"
     ry="0" /><rect
     style="opacity:1;fill:url(#radialGradient10666);fill-opacity:1;fill-rule:evenodd;stroke:none;stroke-width:0.861059;stroke-linecap:round;stroke-linejoin:round;stroke-dasharray:none;stroke-opacity:1"
     id="rect1471"
     width="9.0609608"
     height="8.9605274"
     x="1.8590051"
     y="1.8791519"
     ry="0" /><path
     style="opacity:1;mix-blend-mode:normal;fill:#333333;fill-opacity:1;fill-rule:evenodd;stroke:none;stroke-width:15.2385;stroke-linecap:round;stroke-dasharray:none"
     d="M 2.3144152,10.038063 C 2.4326411,9.8869345 3.0390957,9.5320481 3.3299982,9.3996522 3.6209009,9.2672564 3.9469918,9.091261 4.3061777,9.0090181 4.7359549,8.9106123 4.9779492,8.8949176 4.9779492,8.8949176 c 0,0 0.01757,-0.4653802 -0.012169,-0.755481 C 4.9543803,8.028233 4.831511,7.9089636 4.7664568,7.7629496 4.6990276,7.6116049 4.6690384,7.4948282 4.5819088,7.40769 4.5201579,7.3459329 4.4033353,7.1727114 4.3476171,7.0818199 4.2102944,6.8578087 4.1096727,6.5996824 4.0786695,6.4367938 4.0530332,6.302104 4.0626714,6.1854728 4.0571024,6.048478 4.0461787,5.7797551 3.9339435,5.5209335 3.9278936,5.2520565 3.9224604,5.0106026 3.9535782,4.7667998 4.0116376,4.5323671 4.0645445,4.3187407 4.109091,4.0856161 4.2502123,3.916737 4.3651115,3.7792373 4.5211165,3.7003695 4.632226,3.5597895 4.7078464,3.4641114 4.8241598,3.4166874 4.9144778,3.3347396 5.1149898,3.1528104 5.3469808,3.148492 5.615384,3.1129513 5.7984383,3.0887119 5.9846829,3.1022936 6.1687746,3.087918 6.3997159,3.0698837 6.6336522,2.9594916 6.8594572,3.0111755 c 0.2057969,0.047103 0.3592357,0.2219521 0.536386,0.3367951 0.1302458,0.084436 0.2682436,0.1590219 0.3870274,0.2589406 0.15791,0.132831 0.3264211,0.2679284 0.4272546,0.4479625 C 8.331674,4.2718947 8.3727845,4.5290624 8.4015,4.7761407 8.424588,4.9747842 8.384732,5.3758478 8.384732,5.3758478 L 8.2561702,5.8046025 8.1527583,6.523855 7.9735077,7.1264134 c 0,0 -0.026785,0.5088009 -0.1431711,0.765845 -0.046035,0.1016669 -0.1900602,0.2573319 -0.2161698,0.3763237 -0.037272,0.1698617 -0.022797,0.5207583 -0.022797,0.5207583 l 1.1547928,0.1023377 c 0,0 0.7902728,0.1817928 1.122372,0.3820046 0.2945734,0.1775892 0.5862824,0.4739009 0.7087254,0.6858303 0.206216,0.356927 0.291177,0.539903 0.342706,0.880167 -2.9243343,0.09461 -5.9315543,0.113369 -9.0609609,0 0.079406,-0.329011 0.2261905,-0.508606 0.4554101,-0.801617 z"
     id="path1047"
     sodipodi:nodetypes="szscssssssssssssssssssccccssccssccs" /></svg>

<svg viewBox="0 0 12.7 12.7" xml:space="preserve" xmlns:xlink="http://www.w3.org/1999/xlink" xmlns="http://www.w3.org/2000/svg"><defs><radialGradient xlink:href="#a" id="c" cx="6.39" cy="6.36" fx="6.39" fy="6.36" r="4.17" gradientTransform="matrix(1.08567 0 0 1.07364 -.55 -.47)" gradientUnits="userSpaceOnUse"/><linearGradient id="a"><stop offset="0" stop-color="#fff"/><stop offset="1" stop-color="#d5b8d4"/></linearGradient><filter id="b" x="-.11" y="-.11" width="1.21" height="1.22" color-interpolation-filters="sRGB"><feGaussianBlur stdDeviation=".43"/></filter></defs><rect width="9.69" height="9.53" x="1.54" y="1.6" ry="0" fill-rule="evenodd" filter="url(#b)"/><rect width="9.06" height="8.96" x="1.86" y="1.88" ry="0" fill="url(#c)" fill-rule="evenodd"/><path style="mix-blend-mode:normal" d="M2.31 10.04c.12-.15.73-.5 1.02-.64.3-.13.62-.3.98-.4.43-.09.67-.1.67-.1s.02-.47-.01-.76c-.02-.11-.14-.23-.2-.38-.07-.15-.1-.27-.19-.35a2.45 2.45 0 0 1-.5-.97c-.03-.14-.02-.25-.02-.4-.01-.26-.13-.52-.13-.79 0-.24.02-.48.08-.72.05-.21.1-.44.24-.61.12-.14.27-.22.38-.36.08-.1.2-.14.28-.23.2-.18.44-.18.7-.22.19-.02.37 0 .56-.02.23-.02.46-.13.69-.08.2.05.36.22.54.34.13.08.26.16.38.26.16.13.33.26.43.44.12.22.16.48.2.73.01.2-.03.6-.03.6l-.12.42-.1.72-.19.6s-.02.52-.14.77c-.05.1-.19.26-.22.38-.03.17-.02.52-.02.52l1.16.1s.79.18 1.12.38a2.26 2.26 0 0 1 1.05 1.57c-2.92.1-5.93.11-9.06 0 .08-.33.23-.5.45-.8z" fill="#333" fill-rule="evenodd"/></svg>
